public/images/instagram.svg

<svg width="19" height="19" viewBox="0 0 19 19" fill="none" xmlns="http://www.w3.org/2000/svg">
<path d="M9.64969 2.30099C12.0694 2.30099 12.356 2.31006 13.3119 2.35364C13.8867 2.36068 14.4559 2.46621 14.995 2.66566C15.3859 2.81643 15.7409 3.04737 16.0372 3.34364C16.3335 3.63991 16.5644 3.99494 16.7152 4.38586C16.9146 4.92493 17.0202 5.49421 17.0272 6.06895C17.0704 7.02486 17.0799 7.31141 17.0799 9.73117C17.0799 12.1509 17.0708 12.4375 17.0272 13.3934C17.0202 13.9681 16.9146 14.5374 16.7152 15.0765C16.5644 15.4674 16.3335 15.8224 16.0372 16.1187C15.7409 16.415 15.3859 16.6459 14.995 16.7967C14.4559 16.9961 13.8867 17.1017 13.3119 17.1087C12.3564 17.1519 12.0699 17.1613 9.64969 17.1613C7.2295 17.1613 6.94294 17.1523 5.98746 17.1087C5.41272 17.1017 4.84345 16.9961 4.30438 16.7967C3.91345 16.6459 3.55843 16.415 3.26216 16.1187C2.96589 15.8224 2.73494 15.4674 2.58418 15.0765C2.38473 14.5374 2.27919 13.9681 2.27216 13.3934C2.229 12.4375 2.21951 12.1509 2.21951 9.73117C2.21951 7.31141 2.22857 7.02486 2.27216 6.06895C2.27919 5.49421 2.38473 4.92493 2.58418 4.38586C2.73494 3.99494 2.96589 3.63991 3.26216 3.34364C3.55843 3.04737 3.91345 2.81643 4.30438 2.66566C4.84345 2.46621 5.41272 2.36068 5.98746 2.35364C6.94337 2.31049 7.22993 2.30099 9.64969 2.30099ZM9.64969 0.667969C7.18979 0.667969 6.87993 0.678326 5.91324 0.722345C5.16105 0.737307 4.41684 0.879727 3.71228 1.14355C3.10787 1.37127 2.56044 1.72812 2.10817 2.18922C1.64665 2.64166 1.28949 3.1894 1.06163 3.79419C0.797809 4.49876 0.655389 5.24296 0.640428 5.99515C0.597272 6.96098 0.586914 7.27085 0.586914 9.73074C0.586914 12.1906 0.597271 12.5005 0.641291 13.4672C0.656252 14.2194 0.798672 14.9636 1.06249 15.6681C1.2901 16.2729 1.64697 16.8206 2.10817 17.2731C2.56069 17.7343 3.10843 18.0912 3.71314 18.3188C4.4177 18.5826 5.16191 18.725 5.9141 18.74C6.88079 18.7832 7.18936 18.7944 9.65055 18.7944C12.1117 18.7944 12.4203 18.784 13.387 18.74C14.1392 18.725 14.8834 18.5826 15.588 18.3188C16.1898 18.0855 16.7363 17.7292 17.1926 17.2726C17.6489 16.816 18.0048 16.2693 18.2377 15.6673C18.5016 14.9627 18.644 14.2185 18.6589 13.4663C18.7021 12.5005 18.7125 12.1906 18.7125 9.73074C18.7125 7.27085 18.7021 6.96098 18.6581 5.99429C18.6431 5.2421 18.5007 4.49789 18.2369 3.79333C18.0093 3.18862 17.6524 2.64088 17.1912 2.18836C16.7387 1.72716 16.1909 1.37029 15.5862 1.14269C14.8817 0.878864 14.1375 0.736444 13.3853 0.721482C12.4194 0.678326 12.1096 0.667969 9.64969 0.667969Z" fill="#151515"/>
<path d="M9.65151 5.07861C8.73105 5.07861 7.83125 5.35156 7.06591 5.86295C6.30058 6.37433 5.70407 7.10118 5.35182 7.95157C4.99958 8.80197 4.90741 9.73772 5.08698 10.6405C5.26656 11.5433 5.7098 12.3725 6.36067 13.0234C7.01154 13.6743 7.84079 14.1175 8.74357 14.2971C9.64635 14.4767 10.5821 14.3845 11.4325 14.0323C12.2829 13.68 13.0097 13.0835 13.5211 12.3182C14.0325 11.5528 14.3055 10.653 14.3055 9.73256C14.3055 8.49826 13.8151 7.31451 12.9423 6.44172C12.0696 5.56894 10.8858 5.07861 9.65151 5.07861ZM9.65151 12.7535C9.05403 12.7535 8.46996 12.5763 7.97317 12.2444C7.47639 11.9124 7.08919 11.4406 6.86054 10.8886C6.63189 10.3366 6.57207 9.72921 6.68863 9.14321C6.80519 8.55721 7.09291 8.01893 7.51539 7.59645C7.93788 7.17396 8.47615 6.88625 9.06216 6.76968C9.64816 6.65312 10.2556 6.71295 10.8076 6.94159C11.3596 7.17024 11.8314 7.55744 12.1633 8.05423C12.4953 8.55102 12.6724 9.13508 12.6724 9.73256C12.6724 10.5338 12.3542 11.3021 11.7876 11.8687C11.2211 12.4352 10.4527 12.7535 9.65151 12.7535Z" fill="#151515"/>
<path d="M14.4884 5.98122C15.089 5.98122 15.5759 5.49431 15.5759 4.89368C15.5759 4.29306 15.089 3.80615 14.4884 3.80615C13.8878 3.80615 13.4009 4.29306 13.4009 4.89368C13.4009 5.49431 13.8878 5.98122 14.4884 5.98122Z" fill="#151515"/>
</svg>

<svg xmlns="http://www.w3.org/2000/svg" width="19" height="19" fill="none"><path fill="#151515" d="M9.65 2.301c2.42 0 2.706.01 3.662.053a5 5 0 0 1 1.683.312 3 3 0 0 1 1.72 1.72c.2.539.305 1.108.312 1.683.043.956.053 1.242.053 3.662s-.01 2.707-.053 3.662a5 5 0 0 1-.312 1.683 3 3 0 0 1-1.72 1.72c-.54.2-1.108.306-1.683.313-.956.043-1.242.052-3.662.052s-2.707-.009-3.663-.052a5 5 0 0 1-1.683-.312 3 3 0 0 1-1.72-1.72 5 5 0 0 1-.312-1.684c-.043-.956-.052-1.242-.052-3.662s.009-2.706.052-3.662a5 5 0 0 1 .312-1.683 3 3 0 0 1 1.72-1.72c.54-.2 1.109-.305 1.683-.312C6.943 2.31 7.23 2.3 9.65 2.3m0-1.633c-2.46 0-2.77.01-3.737.054a6.7 6.7 0 0 0-2.2.422 4.4 4.4 0 0 0-1.605 1.045 4.4 4.4 0 0 0-1.046 1.605A6.7 6.7 0 0 0 .64 5.995C.597 6.961.587 7.271.587 9.731s.01 2.77.054 3.736c.015.752.158 1.497.421 2.201a4.4 4.4 0 0 0 1.046 1.605c.453.461 1 .818 1.605 1.046a6.7 6.7 0 0 0 2.201.421c.967.043 1.275.054 3.737.054 2.46 0 2.77-.01 3.736-.054a6.7 6.7 0 0 0 2.201-.421 4.64 4.64 0 0 0 2.65-2.652 6.7 6.7 0 0 0 .42-2.2c.044-.966.054-1.276.054-3.736s-.01-2.77-.054-3.737a6.7 6.7 0 0 0-.421-2.2 4.4 4.4 0 0 0-1.046-1.606 4.4 4.4 0 0 0-1.605-1.045 6.7 6.7 0 0 0-2.2-.422C12.418.678 12.11.668 9.65.668"/><path fill="#151515" d="M9.652 5.079a4.654 4.654 0 1 0 0 9.307 4.654 4.654 0 0 0 0-9.307m0 7.675a3.021 3.021 0 1 1 0-6.043 3.021 3.021 0 0 1 0 6.043M14.488 5.981a1.088 1.088 0 1 0 0-2.175 1.088 1.088 0 0 0 0 2.175"/></svg>
